X: 4
T:-Humors of Westport, The
M:4/4
L:1/8
Q:180
R:March
K:F
f2{a}fe fcAc|f2{a}fe fagf|fage fcAc|{Bd}BAGA Bcde|
f2{a}fe fcAc|f{g}f{e}fe fagb|afge fcAc|(3B{d}B{A}B GA BdcB::
AFcF dFcF|AFcF BdcB|(3AGF cF dFcF|(3B{d}B{A}B GA BdcB|
AF (3FFF dFcF|AFcF BdcB|Acfa gecA|{Bd}BAGA Bcde:|
